X:1
T:Title
%%score { 1 | 2 }
L:1/8
Q:1/4=90
M:4/4
K:Ab
V:1 treble nm="Grand Piano"
V:2 bass 
V:1
 ccBA G [GB]3 | [Gd][Gd] c>_c =c4 | [Ec][Ec][DB][CA] [EG] [GB]3 | [Gd][Gd] [Gc]>[DGB] [CEA]4 | %4
w: Arthur~F.~Ingler * * * * *||||
 BBAB c c3 | [FB][FA] [DG]>[DF] [CE]4 | [DF][DB][Ec][Ed] [Ec] [CA]3 | [EG][Gd] [Gc]>[DGB] [CEA]4 | %8
w: ||||
 [Ec]>[Ec] .[Ec]2 [Fd]>[Fd] .[Fd]2 | [Ac][ce] [Bd]<[Ac] [GB]4 | c>c .c2 [Fd]>[Fd] .[Fd]2 | %11
w: |||
 cB A<G [CA]4 |] %12
w: |
V:2
 [A,E][A,E][A,D][A,C] [E,DE] [E,D]3 | [E,B,][E,B,] [A,E]>[A,=D] [A,E]4 | %2
 [A,,A,][A,,A,][A,,A,][A,,A,] [E,D] [E,D]3 | [E,B,][E,E] [E,E]>E, A,,4 | %4
 [E,DE][E,DE][K:treble][F,CF][G,DE] [A,EA] [A,EA]3 | [D,D][D,D] [D,B,]>[D,A,] [A,,A,]4 | %6
 [D,A,][D,A,][C,A,][B,,G,] [A,,A,] [A,,A,]3 | [E,D][E,E] [E,E]>E, A,,4 | %8
 A,>A, .A,2 [D,A,]>[D,A,] .[D,A,]2 | [A,E][A,E] [G,E]<[A,E] [E,E]4 | %10
 [A,E]>[A,E] .[A,E]2 [D,A,]>[D,A,] .[D,A,]2 | [E,A,E][E,DE] [E,CE]<[E,B,D] [A,,A,]4 |] %12

